Yaru++/mimetypes/48/image-x-cursor.svg

<svg height="48" viewBox="0 0 12.7 12.7" width="48" xmlns="http://www.w3.org/2000/svg" xmlns:xlink="http://www.w3.org/1999/xlink"><linearGradient id="a" gradientUnits="userSpaceOnUse" x1="344" x2="344" y1="62" y2="106"><stop offset="0" stop-color="#fff"/><stop offset=".125" stop-color="#fff" stop-opacity=".098039"/><stop offset=".92500001" stop-color="#fff" stop-opacity=".098039"/><stop offset="1" stop-color="#fff" stop-opacity=".498039"/></linearGradient><clipPath id="b"><path d="m335.73108 62c-8.82418 0-9.77365.90635-9.7304 9.74838v12.25162 12.25162c-.0433 8.84203.90622 9.74838 9.7304 9.74838h16.53919c8.82418 0 9.7304-.90625 9.7304-9.74838v-12.25162-12.25162c0-8.84213-.90622-9.74838-9.7304-9.74838z"/></clipPath><linearGradient id="c" gradientTransform="matrix(0 -.02931857 .03063979 0 -3.107438 13.328834)" gradientUnits="userSpaceOnUse" x1="459.03448" x2="35.310345" y1="419.23337" y2="207.36522"><stop offset="0" stop-color="#f2f2f2"/><stop offset="1" stop-color="#f9f9f9"/></linearGradient><linearGradient id="d" gradientTransform="matrix(0 -1 1 0 389.069336 -325.754884)" gradientUnits="userSpaceOnUse" x1="22.245115" x2="38.245117" y1="-345.06934" y2="-345.06934"><stop offset="0" stop-color="#4d4d4d"/><stop offset="1" stop-color="#151515"/></linearGradient><g enable-background="new" fill="#888" stroke-width=".048884" transform="scale(.97818798 1.0222984)"><path d="m4.255218.38822281c-.6013273 0-1.0748134.013246-1.4644119.075824-.3896012.06257663-.7084088.17995183-.9419385.40287743-.233527.22292586-.3567834.52783996-.4215722.90078786-.0647889.3729482-.0774367.8269934-.0744884 1.4037531v3.1694389 3.170955c-.00292.5758739.00976 1.0296889.074488 1.4022359.064789.372949.1880452.677863.4215722.900788.2335297.222926.5523373.340302.9419385.402878.3896012.06258.8630846.07582 1.4644119.07582h4.4735364c.6013273 0 1.0745646-.01323 1.463357-.07582.388793-.0626.706626-.180377.939293-.403382.23267-.223006.355198-.527703.420517-.900284.06532-.372578.07924-.825702.07924-1.4022359v-3.170955-3.1709553c0-.5765338-.01393-1.0296565-.07924-1.4022367-.065319-.3725798-.187847-.6772761-.420517-.90028236-.232667-.2230061-.5505-.3407791-.939293-.40338296-.388792-.0626041-.8620293-.07582397-1.4633566-.07582397z" fill="#000" opacity=".1"/><path d="m4.255383.38822281c-2.3867917 0-2.6436073.23457443-2.6319089 2.52299989v3.1708692 3.1708691c-.011712 2.288425.2451172 2.523 2.6319089 2.523h4.4735716c2.3867914 0 2.6319084-.234549 2.6319084-2.523v-3.1708691-3.1708692c0-2.28845126-.245117-2.52299989-2.6319084-2.52299989z" fill="none" opacity=".2" stroke="#000" stroke-width=".529167"/><path d="m4.255383.38822281c-2.3867917 0-2.6436073.23457443-2.6319089 2.52299989v3.1708692 3.1708691c-.011712 2.288425.2451172 2.523 2.6319089 2.523h4.4735716c2.3867914 0 2.6319084-.234549 2.6319084-2.523v-3.1708691-3.1708692c0-2.28845126-.245117-2.52299989-2.6319084-2.52299989z" fill="url(#c)"/><path d="m8.3890358 11.765026 2.8923862-2.7675854v1.0370994c-.0027 1.568107-.183314 1.730486-1.8402394 1.730486z" fill="#fff"/><path clip-path="url(#b)" d="m335.73108 62c-8.82418 0-9.77365.90635-9.7304 9.74838v12.25162 12.25162c-.0433 8.84203.90622 9.74838 9.7304 9.74838h16.53919c8.82418 0 9.7304-.90625 9.7304-9.74838v-12.25162-12.25162c0-8.84213-.90622-9.74838-9.7304-9.74838z" fill="none" opacity=".4" stroke="url(#a)" stroke-width="2" transform="matrix(.27048312 0 0 .25881223 -86.554206 -15.658136)"/><g enable-background="new" transform="matrix(.30670781 0 0 .2934739 -3.43525 111.18054)"><path d="m27-365.31445v14l3.132812-3.82032 2.066407 4.98633c.500059 1.25653 2.382901.47633 1.847656-.76562l-2.111328-5.09571 4.378906.01z" fill="none" stroke="#fff" stroke-width="2"/><path d="m26.999997-365.31445v14l3.13281-3.82032 2.06641 4.98633c.50006 1.25653 2.3829.47633 1.84766-.76562l-2.11133-5.09571 4.37891.01z" fill="url(#d)" fill-rule="evenodd"/></g><g fill="#fff"><path d="m1.6232901 6.0820919v3.1709553c-.0117119 2.2884238.2451362 2.5229138 2.6319279 2.5229138h4.4735364c2.3867916 0 2.6319276-.234464 2.6319276-2.5229138v-3.1709553z" opacity=".2"/><path d="m6.4919862.38822281v11.38773819h2.2367682c2.3867916 0 2.6319276-.234464 2.6319276-2.5229138v-3.1709553-3.1709553c0-2.28845136-.245136-2.52291379-2.6319276-2.52291379z" opacity=".1"/></g></g></svg>

<?xml version="1.0" encoding="UTF-8" standalone="no"?>
<svg
   xmlns:dc="http://purl.org/dc/elements/1.1/"
   xmlns:cc="http://creativecommons.org/ns#"
   xmlns:rdf="http://www.w3.org/1999/02/22-rdf-syntax-ns#"
   xmlns:svg="http://www.w3.org/2000/svg"
   xmlns="http://www.w3.org/2000/svg"
   xmlns:xlink="http://www.w3.org/1999/xlink"
   xmlns:sodipodi="http://sodipodi.sourceforge.net/DTD/sodipodi-0.dtd"
   xmlns:inkscape="http://www.inkscape.org/namespaces/inkscape"
   height="48"
   viewBox="0 0 12.7 12.7"
   width="48"
   version="1.1"
   id="svg35"
   sodipodi:docname="3.svg"
   inkscape:version="0.92.5 (2060ec1f9f, 2020-04-08)">
  <metadata
     id="metadata41">
    <rdf:RDF>
      <cc:Work
         rdf:about="">
        <dc:format>image/svg+xml</dc:format>
        <dc:type
           rdf:resource="http://purl.org/dc/dcmitype/StillImage" />
        <dc:title></dc:title>
      </cc:Work>
    </rdf:RDF>
  </metadata>
  <defs
     id="defs39">
    <clipPath
       clipPathUnits="userSpaceOnUse"
       id="clipPath994">
      <path
         style="color:#000000;display:inline;overflow:visible;visibility:visible;fill:#cdcdcd;fill-opacity:1;fill-rule:nonzero;stroke:none;stroke-width:2;stroke-miterlimit:4;stroke-dasharray:none;stroke-opacity:1;marker:none;enable-background:accumulate"
         d="m 335.73108,62 c -8.82418,0 -9.77365,0.90635 -9.7304,9.74838 V 84 96.25162 c -0.0433,8.84203 0.90622,9.74838 9.7304,9.74838 h 16.53919 c 8.82418,0 9.7304,-0.90625 9.7304,-9.74838 V 84 71.74838 C 362.00067,62.90625 361.09445,62 352.27027,62 Z"
         id="path996"
         inkscape:connector-curvature="0"
         sodipodi:nodetypes="scccssscsss" />
    </clipPath>
    <clipPath
       clipPathUnits="userSpaceOnUse"
       id="clipPath994-3">
      <path
         style="color:#000000;display:inline;overflow:visible;visibility:visible;fill:#cdcdcd;fill-opacity:1;fill-rule:nonzero;stroke:none;stroke-width:2;stroke-miterlimit:4;stroke-dasharray:none;stroke-opacity:1;marker:none;enable-background:accumulate"
         d="m 335.73108,62 c -8.82418,0 -9.77365,0.90635 -9.7304,9.74838 V 84 96.25162 c -0.0433,8.84203 0.90622,9.74838 9.7304,9.74838 h 16.53919 c 8.82418,0 9.7304,-0.90625 9.7304,-9.74838 V 84 71.74838 C 362.00067,62.90625 361.09445,62 352.27027,62 Z"
         id="path996-6"
         inkscape:connector-curvature="0"
         sodipodi:nodetypes="scccssscsss" />
    </clipPath>
    <clipPath
       clipPathUnits="userSpaceOnUse"
       id="clipPath994-36">
      <path
         style="color:#000000;display:inline;overflow:visible;visibility:visible;fill:#cdcdcd;fill-opacity:1;fill-rule:nonzero;stroke:none;stroke-width:2;stroke-miterlimit:4;stroke-dasharray:none;stroke-opacity:1;marker:none;enable-background:accumulate"
         d="m 335.73108,62 c -8.82418,0 -9.77365,0.90635 -9.7304,9.74838 V 84 96.25162 c -0.0433,8.84203 0.90622,9.74838 9.7304,9.74838 h 16.53919 c 8.82418,0 9.7304,-0.90625 9.7304,-9.74838 V 84 71.74838 C 362.00067,62.90625 361.09445,62 352.27027,62 Z"
         id="path996-7"
         inkscape:connector-curvature="0"
         sodipodi:nodetypes="scccssscsss" />
    </clipPath>
    <linearGradient
       inkscape:collect="always"
       xlink:href="#linearGradient927"
       id="linearGradient1004"
       x1="344"
       y1="62"
       x2="344"
       y2="106"
       gradientUnits="userSpaceOnUse" />
    <linearGradient
       inkscape:collect="always"
       id="linearGradient927">
      <stop
         style="stop-color:#ffffff;stop-opacity:1;"
         offset="0"
         id="stop923" />
      <stop
         id="stop933"
         offset="0.125"
         style="stop-color:#ffffff;stop-opacity:0.09803922" />
      <stop
         id="stop931"
         offset="0.92500001"
         style="stop-color:#ffffff;stop-opacity:0.09803922" />
      <stop
         style="stop-color:#ffffff;stop-opacity:0.49803922"
         offset="1"
         id="stop925" />
    </linearGradient>
    <clipPath
       clipPathUnits="userSpaceOnUse"
       id="clipPath994-35">
      <path
         style="color:#000000;display:inline;overflow:visible;visibility:visible;fill:#cdcdcd;fill-opacity:1;fill-rule:nonzero;stroke:none;stroke-width:2;stroke-miterlimit:4;stroke-dasharray:none;stroke-opacity:1;marker:none;enable-background:accumulate"
         d="m 335.73108,62 c -8.82418,0 -9.77365,0.90635 -9.7304,9.74838 V 84 96.25162 c -0.0433,8.84203 0.90622,9.74838 9.7304,9.74838 h 16.53919 c 8.82418,0 9.7304,-0.90625 9.7304,-9.74838 V 84 71.74838 C 362.00067,62.90625 361.09445,62 352.27027,62 Z"
         id="path996-62"
         inkscape:connector-curvature="0"
         sodipodi:nodetypes="scccssscsss" />
    </clipPath>
    <linearGradient
       inkscape:collect="always"
       xlink:href="#linearGradient4338"
       id="linearGradient1024"
       gradientUnits="userSpaceOnUse"
       gradientTransform="matrix(0,-0.02931857,0.03063979,0,-3.107438,13.328834)"
       x1="459.03448"
       y1="419.23337"
       x2="35.310345"
       y2="207.36522" />
    <linearGradient
       inkscape:collect="always"
       id="linearGradient4338">
      <stop
         style="stop-color:#f2f2f2;stop-opacity:1"
         offset="0"
         id="stop4340" />
      <stop
         style="stop-color:#f9f9f9;stop-opacity:1"
         offset="1"
         id="stop4342" />
    </linearGradient>
    <linearGradient
       inkscape:collect="always"
       xlink:href="#linearGradient5796"
       id="linearGradient976"
       gradientUnits="userSpaceOnUse"
       gradientTransform="rotate(-90,31.657226,-357.41211)"
       x1="22.245115"
       y1="-345.06934"
       x2="38.245117"
       y2="-345.06934" />
    <linearGradient
       inkscape:collect="always"
       id="linearGradient5796">
      <stop
         id="stop5794"
         offset="0"
         style="stop-color:#4d4d4d;stop-opacity:1" />
      <stop
         id="stop5792"
         offset="1"
         style="stop-color:#151515;stop-opacity:1;" />
    </linearGradient>
  </defs>
  <sodipodi:namedview
     pagecolor="#ffffff"
     bordercolor="#666666"
     borderopacity="1"
     objecttolerance="10"
     gridtolerance="10"
     guidetolerance="10"
     inkscape:pageopacity="0"
     inkscape:pageshadow="2"
     inkscape:window-width="1920"
     inkscape:window-height="1016"
     id="namedview37"
     showgrid="false"
     inkscape:zoom="4.9166667"
     inkscape:cx="-53.9591"
     inkscape:cy="24"
     inkscape:window-x="0"
     inkscape:window-y="27"
     inkscape:window-maximized="1"
     inkscape:current-layer="text130-3" />
  <linearGradient
     id="a"
     gradientUnits="userSpaceOnUse"
     x1="344"
     x2="344"
     y1="62"
     y2="106">
    <stop
       offset="0"
       stop-color="#fff"
       id="stop2" />
    <stop
       offset=".125"
       stop-color="#fff"
       stop-opacity=".098039"
       id="stop4" />
    <stop
       offset=".92500001"
       stop-color="#fff"
       stop-opacity=".098039"
       id="stop6" />
    <stop
       offset="1"
       stop-color="#fff"
       stop-opacity=".498039"
       id="stop8" />
  </linearGradient>
  <clipPath
     id="b">
    <path
       d="m335.73108 62c-8.82418 0-9.77365.90635-9.7304 9.74838v12.25162 12.25162c-.0433 8.84203.90622 9.74838 9.7304 9.74838h16.53919c8.82418 0 9.7304-.90625 9.7304-9.74838v-12.25162-12.25162c0-8.84213-.90622-9.74838-9.7304-9.74838z"
       id="path11" />
  </clipPath>
  <linearGradient
     id="c"
     gradientTransform="matrix(0 -.02997233 .02997147 0 -3.039659 297.92607)"
     gradientUnits="userSpaceOnUse"
     x1="459.03448"
     x2="35.310345"
     y1="419.23337"
     y2="207.36522">
    <stop
       offset="0"
       stop-color="#f2f2f2"
       id="stop14" />
    <stop
       offset="1"
       stop-color="#f9f9f9"
       id="stop16" />
  </linearGradient>
  <g
     aria-label="iso"
     transform="scale(0.97818798,1.0222984)"
     style="font-style:normal;font-weight:normal;font-size:1.99897027px;line-height:1.25;font-family:sans-serif;letter-spacing:0px;word-spacing:0px;display:inline;opacity:1;fill:#888888;fill-opacity:1;stroke:none;stroke-width:0.04888422;enable-background:new"
     id="text130-3">
    <flowRoot
       xml:space="preserve"
       id="flowRoot930"
       style="fill:black;fill-opacity:1;stroke:none;font-family:sans-serif;font-style:normal;font-weight:normal;font-size:40px;line-height:1.25;letter-spacing:0px;word-spacing:0px"><flowRegion
         id="flowRegion932"><rect
           id="rect934"
           width="115.11864"
           height="97.220337"
           x="-21.152542"
           y="-27.864407" /></flowRegion><flowPara
         id="flowPara936"></flowPara></flowRoot>    <path
       style="color:#000000;font-style:normal;font-variant:normal;font-weight:normal;font-stretch:normal;font-size:medium;line-height:normal;font-family:sans-serif;font-variant-ligatures:normal;font-variant-position:normal;font-variant-caps:normal;font-variant-numeric:normal;font-variant-alternates:normal;font-feature-settings:normal;text-indent:0;text-align:start;text-decoration:none;text-decoration-line:none;text-decoration-style:solid;text-decoration-color:#000000;letter-spacing:normal;word-spacing:normal;text-transform:none;writing-mode:lr-tb;direction:ltr;text-orientation:mixed;dominant-baseline:auto;baseline-shift:baseline;text-anchor:start;white-space:normal;shape-padding:0;clip-rule:nonzero;display:inline;overflow:visible;visibility:visible;opacity:0.1;isolation:auto;mix-blend-mode:normal;color-interpolation:sRGB;color-interpolation-filters:linearRGB;solid-color:#000000;solid-opacity:1;vector-effect:none;fill:#000000;fill-opacity:1;fill-rule:nonzero;stroke:none;stroke-width:0.52916664;stroke-linecap:butt;stroke-linejoin:miter;stroke-miterlimit:4;stroke-dasharray:none;stroke-dashoffset:0;stroke-opacity:1;marker:none;color-rendering:auto;image-rendering:auto;shape-rendering:auto;text-rendering:auto;enable-background:accumulate"
       d="m 4.255218,0.38822281 c -0.6013273,0 -1.0748134,0.013246 -1.4644119,0.075824 C 2.4012049,0.52662344 2.0823973,0.64399864 1.8488676,0.86692424 1.6153406,1.0898501 1.4920842,1.3947642 1.4272954,1.7677121 1.3625065,2.1406603 1.3498587,2.5947055 1.352807,3.1714652 v 3.1694389 3.170955 c -0.00292,0.5758739 0.00976,1.0296889 0.074488,1.4022359 0.064789,0.372949 0.1880452,0.677863 0.4215722,0.900788 0.2335297,0.222926 0.5523373,0.340302 0.9419385,0.402878 0.3896012,0.06258 0.8630846,0.07582 1.4644119,0.07582 H 8.728754 c 0.6013273,0 1.0745646,-0.01323 1.463357,-0.07582 0.388793,-0.0626 0.706626,-0.180377 0.939293,-0.403382 0.23267,-0.223006 0.355198,-0.527703 0.420517,-0.900284 0.06532,-0.372578 0.07924,-0.825702 0.07924,-1.4022359 V 6.3409041 3.1699488 c 0,-0.5765338 -0.01393,-1.0296565 -0.07924,-1.4022367 C 11.486602,1.3951323 11.364074,1.090436 11.131404,0.86742974 10.898737,0.64442364 10.580904,0.52665064 10.192111,0.46404678 9.803319,0.40144268 9.3300817,0.38822281 8.7287544,0.38822281 Z"
       id="path1020"
       inkscape:connector-curvature="0"
       sodipodi:nodetypes="sccsccccccsscccscsccsss" />
    <path
       style="color:#000000;display:inline;overflow:visible;visibility:visible;opacity:0.2;fill:none;fill-opacity:1;fill-rule:nonzero;stroke:#000000;stroke-width:0.52916664;stroke-miterlimit:4;stroke-dasharray:none;stroke-opacity:1;marker:none;enable-background:accumulate"
       d="m 4.255383,0.38822281 c -2.3867917,0 -2.6436073,0.23457443 -2.6319089,2.52299989 V 6.0820919 9.252961 c -0.011712,2.288425 0.2451172,2.523 2.6319089,2.523 h 4.4735716 c 2.3867914,0 2.6319084,-0.234549 2.6319084,-2.523 V 6.0820919 2.9112227 c 0,-2.28845126 -0.245117,-2.52299989 -2.6319084,-2.52299989 z"
       id="path958"
       inkscape:connector-curvature="0"
       sodipodi:nodetypes="scccssscsss" />
    <path
       style="color:#000000;display:inline;overflow:visible;visibility:visible;fill:url(#linearGradient1024);fill-opacity:1;fill-rule:nonzero;stroke:none;stroke-width:0.26458332;marker:none;enable-background:accumulate"
       d="m 4.255383,0.38822281 c -2.3867917,0 -2.6436073,0.23457443 -2.6319089,2.52299989 V 6.0820919 9.252961 c -0.011712,2.288425 0.2451172,2.523 2.6319089,2.523 h 4.4735716 c 2.3867914,0 2.6319084,-0.234549 2.6319084,-2.523 V 6.0820919 2.9112227 c 0,-2.28845126 -0.245117,-2.52299989 -2.6319084,-2.52299989 z"
       id="path964"
       inkscape:connector-curvature="0"
       sodipodi:nodetypes="scccssscsss" />
    <path
       style="color:#000000;display:inline;overflow:visible;visibility:visible;opacity:1;fill:#ffffff;fill-opacity:1;fill-rule:nonzero;stroke:none;stroke-width:0.3772395;stroke-linecap:butt;stroke-linejoin:miter;stroke-miterlimit:4;stroke-dasharray:none;stroke-dashoffset:0;stroke-opacity:1;marker:none;enable-background:accumulate"
       d="M 8.3890358,11.765026 11.281422,8.9974406 V 10.03454 c -0.0027,1.568107 -0.183314,1.730486 -1.8402394,1.730486 z"
       id="path4254-3"
       inkscape:connector-curvature="0"
       sodipodi:nodetypes="cccsc" />
    <path
       transform="matrix(0.27048312,0,0,0.25881223,-86.554206,-15.658136)"
       sodipodi:nodetypes="scccssscsss"
       inkscape:connector-curvature="0"
       id="path990"
       d="m 335.73108,62 c -8.82418,0 -9.77365,0.90635 -9.7304,9.74838 V 84 96.25162 c -0.0433,8.84203 0.90622,9.74838 9.7304,9.74838 h 16.53919 c 8.82418,0 9.7304,-0.90625 9.7304,-9.74838 V 84 71.74838 C 362.00067,62.90625 361.09445,62 352.27027,62 Z"
       style="color:#000000;display:inline;overflow:visible;visibility:visible;opacity:0.4;fill:none;fill-opacity:1;fill-rule:nonzero;stroke:url(#linearGradient1004);stroke-width:2;stroke-miterlimit:4;stroke-dasharray:none;stroke-opacity:1;marker:none;enable-background:accumulate"
       clip-path="url(#clipPath994-35)" />
    <g
       style="display:inline;enable-background:new"
       id="g12439-7"
       transform="matrix(0.30670781,0,0,0.2934739,-3.4352495,111.18054)">
      <path
         sodipodi:nodetypes="cccccccc"
         inkscape:connector-curvature="0"
         style="display:inline;fill:none;fill-opacity:1;fill-rule:evenodd;stroke:#ffffff;stroke-width:2;stroke-linecap:butt;stroke-linejoin:miter;stroke-miterlimit:4;stroke-dasharray:none;stroke-opacity:1"
         d="m 27,-365.31445 v 14 l 3.132812,-3.82032 2.066407,4.98633 c 0.500059,1.25653 2.382901,0.47633 1.847656,-0.76562 l -2.111328,-5.09571 4.378906,0.01 z"
         id="path7431-5" />
      <path
         sodipodi:nodetypes="cccccccc"
         inkscape:connector-curvature="0"
         id="path7371-3"
         d="m 26.999997,-365.31445 v 14 l 3.13281,-3.82032 2.06641,4.98633 c 0.50006,1.25653 2.3829,0.47633 1.84766,-0.76562 l -2.11133,-5.09571 4.37891,0.01 z"
         style="display:inline;fill:url(#linearGradient976);fill-opacity:1;fill-rule:evenodd;stroke:none;stroke-width:2;stroke-linecap:butt;stroke-linejoin:miter;stroke-miterlimit:4;stroke-dasharray:none;stroke-opacity:1" />
    </g>
    <path
       style="color:#000000;display:inline;overflow:visible;visibility:visible;opacity:0.2;fill:#ffffff;fill-opacity:1;fill-rule:nonzero;stroke:none;stroke-width:0.26458332;marker:none;enable-background:accumulate"
       d="M 1.6232901,6.0820919 V 9.2530472 C 1.6115782,11.541471 1.8684263,11.775961 4.255218,11.775961 h 4.4735364 c 2.3867916,0 2.6319276,-0.234464 2.6319276,-2.5229138 V 6.0820919 Z"
       id="path1006"
       inkscape:connector-curvature="0" />
    <path
       style="color:#000000;display:inline;overflow:visible;visibility:visible;opacity:0.1;fill:#ffffff;fill-opacity:1;fill-rule:nonzero;stroke:none;stroke-width:0.26458332;marker:none;enable-background:accumulate"
       d="M 6.4919862,0.38822281 V 11.775961 h 2.2367682 c 2.3867916,0 2.6319276,-0.234464 2.6319276,-2.5229138 V 6.0820919 2.9111366 c 0,-2.28845136 -0.245136,-2.52291379 -2.6319276,-2.52291379 z"
       id="path1013"
       inkscape:connector-curvature="0" />
  </g>
</svg>
